Numix-Light-GalliumOS/24/status/battery-060-charging.svg

<svg xmlns="http://www.w3.org/2000/svg" viewBox="0 0 24 24">
 <path d="m 9 4 0 2 -3 0 0 14 12 0 0 -14 -3 0 0 -2 -6 0 m 5 3 -1 5 3 0 -6 7 1 -5 -3 0 6 -7 z" style="fill:#353535;opacity:0.4;fill-opacity:1"/>
 <path d="m 6 10.4 0 9.6 l 12 0 0 -9.6 -4.68 0 l -0.32 1.6 l 3 0 -6 7 1 -5 -3 0 3.086 -3.6 -5.086 0 z" style="fill:#353535;opacity:1;fill-opacity:1"/>
</svg>

<?xml version="1.0" encoding="UTF-8" standalone="no"?>
<svg
   xmlns:dc="http://purl.org/dc/elements/1.1/"
   xmlns:cc="http://creativecommons.org/ns#"
   xmlns:rdf="http://www.w3.org/1999/02/22-rdf-syntax-ns#"
   xmlns:svg="http://www.w3.org/2000/svg"
   xmlns="http://www.w3.org/2000/svg"
   xmlns:sodipodi="http://sodipodi.sourceforge.net/DTD/sodipodi-0.dtd"
   xmlns:inkscape="http://www.inkscape.org/namespaces/inkscape"
   width="24"
   viewBox="0 0 24 24"
   height="24"
   id="svg3019"
   version="1.1"
   inkscape:version="0.91 r"
   sodipodi:docname="xfpm-ups-060-charging.svg">
  <metadata
     id="metadata3031">
    <rdf:RDF>
      <cc:Work
         rdf:about="">
        <dc:format>image/svg+xml</dc:format>
        <dc:type
           rdf:resource="http://purl.org/dc/dcmitype/StillImage" />
        <dc:title />
      </cc:Work>
    </rdf:RDF>
  </metadata>
  <defs
     id="defs3029" />
  <sodipodi:namedview
     pagecolor="#ffffff"
     bordercolor="#666666"
     borderopacity="1"
     objecttolerance="10"
     gridtolerance="10"
     guidetolerance="10"
     inkscape:pageopacity="0"
     inkscape:pageshadow="2"
     inkscape:window-width="1366"
     inkscape:window-height="747"
     id="namedview3027"
     showgrid="false"
     inkscape:zoom="7.5853273"
     inkscape:cx="-9.3622541"
     inkscape:cy="6.7139431"
     inkscape:window-x="0"
     inkscape:window-y="21"
     inkscape:window-maximized="1"
     inkscape:current-layer="svg3019" />
  <path
     d="M 9,4 9,6 6,6 6,20 18,20 18,6 15,6 15,4 9,4 Z m 5,3 -1,5 3,0 -6,7 1,-5 -3,0 6,-7 z"
     id="path3023"
     style="opacity:0.4;fill:#353535;fill-opacity:1"
     inkscape:connector-curvature="0" />
  <path
     style="opacity:1;fill:#353535;fill-opacity:1"
     d="M 6,10.400391 6,20 l 12,0 0,-9.599609 -4.679687,0 L 13,12 l 3,0 -6,7 1,-5 -3,0 3.085938,-3.599609 -5.085938,0 z"
     id="path3023-5"
     inkscape:connector-curvature="0" />
</svg>
